src/images/google-play.svg

<svg fill="none" height="120" viewBox="0 0 108 120" width="108" xmlns="http://www.w3.org/2000/svg"><path d="m.298899 0c-.149449.463293-.298899.921605-.298899 1.53435v115.71865c0 1.081.303881 1.694.916623 2.307l56.865477-60.2435zm61.319101 63.3068 14.7008 15.1691-20.9876 11.9559s-26.6768 15.1642-41.3876 23.6082zm3.9903-4.1398 15.7719 16.3996c2.4709-1.3749 21.7748-12.4143 24.5298-13.9486 2.909-1.6838 2.615-3.9853.144-5.2108-2.286-1.2703-21.5902-12.3296-24.5094-14.123l-15.9562 16.8978zm-4.0003-3.9853 14.8653-15.7868-21.2169-12.1104s-34.5875-19.78712-46.09515-26.392785l52.45675 54.289985z" fill="#f1f1f1"/></svg>

<svg width="108" height="120" viewBox="0 0 108 120" fill="none" xmlns="http://www.w3.org/2000/svg">
<path d="M0.298899 0C0.14945 0.463293 0 0.921605 0 1.53435V117.253C0 118.334 0.303881 118.947 0.916623 119.56L57.7821 59.3165L0.298899 0ZM61.618 63.3068L76.3188 78.4759L55.3312 90.4318C55.3312 90.4318 28.6544 105.596 13.9436 114.04L61.618 63.3068ZM65.6083 59.167L81.3802 75.5666C83.8511 74.1917 103.155 63.1523 105.91 61.618C108.819 59.9342 108.525 57.6327 106.054 56.4072C103.768 55.1369 84.4638 44.0776 81.5446 42.2842L65.5884 59.182L65.6083 59.167ZM61.608 55.1817L76.4733 39.3949L55.2564 27.2845C55.2564 27.2845 20.6689 7.49738 9.16125 0.891715L61.618 55.1817H61.608Z" fill="#F1F1F1"/>
</svg>
